X: 39
T: Central Park West
M: 4/4
L: 1/4
C: John Coltrane
Q: 1/4=80
%%staves (chords melody)
K: B
%%text (ballad)
%%vskip 20
V: chords
"C#m7"x "F#7"x |: "Bmaj7"x2 "Em7"x "A7"x | "Dmaj7"x2 "Bbm7"x "Eb7"x |
"Abmaj7"x2 "Gm7"x "C7"x | "Fmaj7"x2 "C#m7"x "F#7"x |
"Bmaj7"x2 "Em7"x "A7"x | "Dmaj7"x2 "C#m7"x "F#7"x |
"Bmaj7"x2 x x | "C#m7/B"x2 x x |
"Bmaj7"x2 x x | "C#m7/B"x2 x x :|
V: melody
DC |: F4 | z2 _A_B |
=cccc |=Az DC |
F4 | z2 D>C |
D2 z z//G//F//D// | C3-C/B//C// |
D2 z z//A//F//D// | C2 DC :|
